X:1

T:White Petticoat

L:1/8

M:6/8

K:Emin

Bed cBA|GFE B,EG||FBB cBB|eBB cBA|Bed cBA|GFE B,EG|FBB cBA|1 GEE E2A:|2 GEE E2g||

|:gec Gce|gaf gec|cBA EAc|Be^d e2E|FBB GBB|FBA GFE|B,EF cBA|1 GEE E2g:|2  GEE E2A||

 

WHITE PONY, THE (An Pónaí Bán). AKA and see “Chalk Sunday,” “Johnny Dennehy’s,” “Pretty Jane.” Irish, Jig. A Major (Levey): G Major (Breathnach). Standard tuning. AABB. The tune appears as one of  "The Farranfore Jigs" by the group Shegui on their album "Around the World for Sport” (1980), whose source was Tom Billy (Murphy) and Jack Dennehy (sic). See also “Johnny Dennehy’s”—Dennehy was a fiddler from the Farranfore, County Kerry, area (halfway between Tralee and Castleisland) greatly influenced by the fiddling of fellow Sliabh Luachra musician Tom Billy Murphy. Breathnach (CRÉ V), 1999; No. 16, pg. 10. Levey (2nd Collection), 1873. Decca (78 RPM), Sean McGuire’s Ceili Band (c. 1950’s).

